svg/black/iop.svg

<?xml version="1.0" encoding="UTF-8"?>
<svg width="32px" height="32px" viewBox="0 0 32 32" version="1.1" xmlns="http://www.w3.org/2000/svg" xmlns:xlink="http://www.w3.org/1999/xlink">
    <!-- Generator: Sketch 53 (72520) - https://sketchapp.com -->
    <title>svg/black/iop</title>
    <desc>Created with Sketch.</desc>
    <g id="black/iop" stroke="none" stroke-width="1" fill="none" fill-rule="evenodd">
        <path d="M16,32 C7.163444,32 0,24.836556 0,16 C0,7.163444 7.163444,0 16,0 C24.836556,0 32,7.163444 32,16 C32,24.836556 24.836556,32 16,32 Z M8.41347368,11.9187368 C8.38007018,11.8996491 8.35284211,11.9150877 8.35284211,11.9538246 L8.35284211,14.2555789 C8.35510231,14.2983301 8.37762752,14.3374364 8.41347368,14.3608421 L11.3232281,16.042807 C11.3590742,16.0662127 11.3815994,16.105319 11.3838596,16.1480702 L11.3838596,24.4773333 C11.3863611,24.5200835 11.4089535,24.5591257 11.4447719,24.5825965 L13.4377544,25.7334737 C13.4711579,25.7525614 13.498386,25.7371228 13.498386,25.698386 L13.498386,14.9272982 C13.4961258,14.884547 13.4736005,14.8454408 13.4377544,14.8220351 L8.41347368,11.9187368 Z M23.5865263,11.9187368 L18.5625263,14.8220351 C18.5267814,14.8455363 18.5042884,14.8845867 18.5018947,14.9272982 L18.5018947,25.698386 C18.5018947,25.7371228 18.5294035,25.7525614 18.5625263,25.7334737 L20.5555088,24.5825965 C20.5912537,24.5590953 20.6137467,24.5200449 20.6161404,24.4773333 L20.6161404,16.1469474 C20.6185088,16.1041574 20.6411334,16.0650595 20.6770526,16.0416842 L23.5865263,14.3608421 C23.6224455,14.3374668 23.6450701,14.2983689 23.6474386,14.2555789 L23.6474386,11.9538246 C23.6474386,11.9150877 23.6199298,11.8996491 23.5865263,11.9187368 Z M23.9809123,7.50329825 C23.9809123,7.46484211 23.9528421,7.44884211 23.9202807,7.46849123 L16.0606316,12.0138947 C16.022527,12.0332476 15.977473,12.0332476 15.9393684,12.0138947 L8.0797193,7.46849123 C8.04631579,7.44884211 8.01880702,7.46484211 8.01880702,7.50329825 L8.01880702,9.80505263 C8.02117547,9.84784263 8.04380009,9.88694049 8.0797193,9.91031579 L14.8825263,13.8440702 C14.9182713,13.8675714 14.9407643,13.9066217 14.9431579,13.9493333 L14.9431579,28.2342456 C14.9455263,28.2770356 14.968151,28.3161335 15.0040702,28.3395088 L15.9390877,28.8795789 C15.9773538,28.8986681 16.0223655,28.8986681 16.0606316,28.8795789 L16.9959298,28.3395088 C17.031849,28.3161335 17.0544737,28.2770356 17.0568421,28.2342456 L17.0568421,13.9493333 C17.0592357,13.9066217 17.0817287,13.8675714 17.1174737,13.8440702 L23.9202807,9.90975439 C23.9561269,9.8863487 23.9786521,9.84724242 23.9809123,9.80449123 L23.9809123,7.50329825 Z M16.0360279,13.3193004 C16.0280279,13.3193004 16.0250279,13.3133004 16.0290279,13.3063004 C16.0330279,13.2993004 16.0390279,13.2993004 16.0430279,13.3063004 C16.0470279,13.3133004 16.0430279,13.3193004 16.0360279,13.3193004 Z M15.0122105,7.20182456 C14.9724742,7.21052504 14.943906,7.24536431 14.9431579,7.28603509 L14.9431579,10.1590175 C14.9456594,10.2017677 14.9682518,10.2408099 15.0040702,10.2642807 L15.9390877,10.8040702 C15.9772903,10.8234271 16.022429,10.8234271 16.0606316,10.8040702 L16.9956491,10.2642807 C17.0315346,10.2408734 17.0541484,10.2017942 17.0565614,10.1590175 L17.0565614,7.28491228 C17.0558133,7.2442415 17.0272451,7.20940223 16.9875088,7.20070175 L16.0687719,7.0322807 C16.0230043,7.02526257 15.9764343,7.02526257 15.9306667,7.0322807 L15.0122105,7.20182456 Z" id="Combined-Shape" fill="#000000" fill-rule="nonzero"></path>
    </g>
</svg>

<svg width="32" height="32" viewBox="0 0 32 32" xmlns="http://www.w3.org/2000/svg"><path d="M16 32C7.163 32 0 24.837 0 16S7.163 0 16 0s16 7.163 16 16-7.163 16-16 16zM8.413 11.919c-.033-.02-.06-.004-.06.035v2.302a.134.134 0 0 0 .06.105l2.91 1.682a.134.134 0 0 1 .06.105v8.33a.135.135 0 0 0 .062.105l1.993 1.15c.033.02.06.004.06-.035v-10.77a.134.134 0 0 0-.06-.106l-5.025-2.903zm15.174 0l-5.024 2.903a.135.135 0 0 0-.061.105v10.771c0 .04.027.055.06.035l1.994-1.15a.135.135 0 0 0 .06-.106v-8.33a.134.134 0 0 1 .061-.105l2.91-1.681a.134.134 0 0 0 .06-.105v-2.302c0-.039-.027-.054-.06-.035zm.394-4.416c0-.038-.028-.054-.06-.035l-7.86 4.546a.134.134 0 0 1-.122 0L8.08 7.468c-.033-.02-.06-.003-.06.035v2.302a.134.134 0 0 0 .06.105l6.804 3.934a.135.135 0 0 1 .06.105v14.285a.134.134 0 0 0 .061.106l.935.54a.138.138 0 0 0 .122 0l.935-.54a.134.134 0 0 0 .06-.106V13.95a.135.135 0 0 1 .061-.105L23.92 9.91a.134.134 0 0 0 .06-.106v-2.3zm-7.945 5.816c-.008 0-.011-.006-.007-.013.004-.007.01-.007.014 0s0 .013-.007.013zm-1.024-6.117a.088.088 0 0 0-.069.084v2.873a.135.135 0 0 0 .061.105l.935.54c.038.02.083.02.122 0l.935-.54a.135.135 0 0 0 .06-.105V7.285a.087.087 0 0 0-.068-.084l-.92-.169a.456.456 0 0 0-.137 0l-.919.17z"/></svg>
